data/files from XYZ/DSC_6536.xmp
<x:xmpmeta xmlns:x='adobe:ns:meta/' x:xmptk='Image::ExifTool 7.19'>
<rdf:RDF xmlns:rdf='http://www.w3.org/1999/02/22-rdf-syntax-ns#'>

 <rdf:Description rdf:about=''
  xmlns:Iptc4xmpCore='http://iptc.org/std/Iptc4xmpCore/1.0/xmlns/'>
  <Iptc4xmpCore:CreatorContactInfo rdf:parseType='Resource'>
   <Iptc4xmpCore:CiUrlWork>http://xyz.su</Iptc4xmpCore:CiUrlWork>
  </Iptc4xmpCore:CreatorContactInfo>
 </rdf:Description>

 <rdf:Description rdf:about=''
  xmlns:aux='http://ns.adobe.com/exif/1.0/aux/'>
  <aux:ImageNumber>66057</aux:ImageNumber>
  <aux:Lens>12.0-24.0 mm f/4.0</aux:Lens>
  <aux:LensInfo>120/10 240/10 40/10 40/10</aux:LensInfo>
  <aux:SerialNumber>4201629</aux:SerialNumber>
 </rdf:Description>

 <rdf:Description rdf:about=''
  xmlns:crs='http://ns.adobe.com/camera-raw-settings/1.0/'>
  <crs:AlreadyApplied>False</crs:AlreadyApplied>
  <crs:BlueHue>0</crs:BlueHue>
  <crs:BlueSaturation>0</crs:BlueSaturation>
  <crs:Brightness>+50</crs:Brightness>
  <crs:CameraProfile>Adobe Standard</crs:CameraProfile>
  <crs:CameraProfileDigest>A26CCCF0806A1BCDE138F8614C44D6DA</crs:CameraProfileDigest>
  <crs:ChromaticAberrationB>0</crs:ChromaticAberrationB>
  <crs:ChromaticAberrationR>0</crs:ChromaticAberrationR>
  <crs:Clarity>0</crs:Clarity>
  <crs:ColorNoiseReduction>25</crs:ColorNoiseReduction>
  <crs:Contrast>+25</crs:Contrast>
  <crs:ConvertToGrayscale>False</crs:ConvertToGrayscale>
  <crs:CropAngle>3.53632</crs:CropAngle>
  <crs:CropBottom>0.850274</crs:CropBottom>
  <crs:CropLeft>0.125937</crs:CropLeft>
  <crs:CropRight>0.971662</crs:CropRight>
  <crs:CropTop>0.084592</crs:CropTop>
  <crs:Defringe>0</crs:Defringe>
  <crs:Exposure>+2.00</crs:Exposure>
  <crs:FillLight>30</crs:FillLight>
  <crs:GreenHue>0</crs:GreenHue>
  <crs:GreenSaturation>0</crs:GreenSaturation>
  <crs:HasCrop>True</crs:HasCrop>
  <crs:HasSettings>True</crs:HasSettings>
  <crs:HighlightRecovery>0</crs:HighlightRecovery>
  <crs:HueAdjustmentAqua>0</crs:HueAdjustmentAqua>
  <crs:HueAdjustmentBlue>0</crs:HueAdjustmentBlue>
  <crs:HueAdjustmentGreen>0</crs:HueAdjustmentGreen>
  <crs:HueAdjustmentMagenta>0</crs:HueAdjustmentMagenta>
  <crs:HueAdjustmentOrange>0</crs:HueAdjustmentOrange>
  <crs:HueAdjustmentPurple>0</crs:HueAdjustmentPurple>
  <crs:HueAdjustmentRed>0</crs:HueAdjustmentRed>
  <crs:HueAdjustmentYellow>0</crs:HueAdjustmentYellow>
  <crs:LuminanceAdjustmentAqua>0</crs:LuminanceAdjustmentAqua>
  <crs:LuminanceAdjustmentBlue>-38</crs:LuminanceAdjustmentBlue>
  <crs:LuminanceAdjustmentGreen>+38</crs:LuminanceAdjustmentGreen>
  <crs:LuminanceAdjustmentMagenta>0</crs:LuminanceAdjustmentMagenta>
  <crs:LuminanceAdjustmentOrange>0</crs:LuminanceAdjustmentOrange>
  <crs:LuminanceAdjustmentPurple>0</crs:LuminanceAdjustmentPurple>
  <crs:LuminanceAdjustmentRed>0</crs:LuminanceAdjustmentRed>
  <crs:LuminanceAdjustmentYellow>+27</crs:LuminanceAdjustmentYellow>
  <crs:LuminanceSmoothing>0</crs:LuminanceSmoothing>
  <crs:ParametricDarks>0</crs:ParametricDarks>
  <crs:ParametricHighlightSplit>75</crs:ParametricHighlightSplit>
  <crs:ParametricHighlights>0</crs:ParametricHighlights>
  <crs:ParametricLights>0</crs:ParametricLights>
  <crs:ParametricMidtoneSplit>50</crs:ParametricMidtoneSplit>
  <crs:ParametricShadowSplit>25</crs:ParametricShadowSplit>
  <crs:ParametricShadows>0</crs:ParametricShadows>
  <crs:PostCropVignetteAmount>0</crs:PostCropVignetteAmount>
  <crs:RedHue>0</crs:RedHue>
  <crs:RedSaturation>0</crs:RedSaturation>
  <crs:RetouchInfo>
   <rdf:Seq>
    <rdf:li>centerX = 0.614362, centerY = 0.136639, radius = 0.013255, sourceState = sourceAutoComputed, sourceX = 0.641529, sourceY = 0.136574, spotType = clone</rdf:li>
    <rdf:li>centerX = 0.506943, centerY = 0.131360, radius = 0.011525, sourceState = sourceSetExplicitly, sourceX = 0.472932, sourceY = 0.126219, spotType = clone</rdf:li>
    <rdf:li>centerX = 0.522727, centerY = 0.125088, radius = 0.004342, sourceState = sourceSetExplicitly, sourceX = 0.559828, sourceY = 0.136454, spotType = clone</rdf:li>
    <rdf:li>centerX = 0.502293, centerY = 0.143687, radius = 0.006643, sourceState = sourceSetExplicitly, sourceX = 0.529871, sourceY = 0.148435, spotType = clone</rdf:li>
    <rdf:li>centerX = 0.517201, centerY = 0.121098, radius = 0.007090, sourceState = sourceSetExplicitly, sourceX = 0.559855, sourceY = 0.184560, spotType = clone</rdf:li>
    <rdf:li>centerX = 0.505827, centerY = 0.120822, radius = 0.007090, sourceState = sourceSetExplicitly, sourceX = 0.565083, sourceY = 0.132330, spotType = clone</rdf:li>
    <rdf:li>centerX = 0.498448, centerY = 0.117822, radius = 0.007090, sourceState = sourceSetExplicitly, sourceX = 0.563868, sourceY = 0.188516, spotType = clone</rdf:li>
    <rdf:li>centerX = 0.488573, centerY = 0.118842, radius = 0.005044, sourceState = sourceSetExplicitly, sourceX = 0.573756, sourceY = 0.162767, spotType = clone</rdf:li>
    <rdf:li>centerX = 0.481082, centerY = 0.118537, radius = 0.005044, sourceState = sourceSetExplicitly, sourceX = 0.574269, sourceY = 0.150820, spotType = clone</rdf:li>
    <rdf:li>centerX = 0.473655, centerY = 0.116692, radius = 0.005044, sourceState = sourceSetExplicitly, sourceX = 0.577709, sourceY = 0.166133, spotType = clone</rdf:li>
    <rdf:li>centerX = 0.465938, centerY = 0.115593, radius = 0.005044, sourceState = sourceSetExplicitly, sourceX = 0.561113, sourceY = 0.138233, spotType = clone</rdf:li>
    <rdf:li>centerX = 0.204585, centerY = 0.779073, radius = 0.006909, sourceState = sourceSetExplicitly, sourceX = 0.237925, sourceY = 0.772149, spotType = clone</rdf:li>
    <rdf:li>centerX = 0.107326, centerY = 0.728351, radius = 0.008561, sourceState = sourceAutoComputed, sourceX = 0.107438, sourceY = 0.707176, spotType = clone</rdf:li>
   </rdf:Seq>
  </crs:RetouchInfo>
  <crs:Saturation>0</crs:Saturation>
  <crs:SaturationAdjustmentAqua>0</crs:SaturationAdjustmentAqua>
  <crs:SaturationAdjustmentBlue>+27</crs:SaturationAdjustmentBlue>
  <crs:SaturationAdjustmentGreen>+32</crs:SaturationAdjustmentGreen>
  <crs:SaturationAdjustmentMagenta>0</crs:SaturationAdjustmentMagenta>
  <crs:SaturationAdjustmentOrange>0</crs:SaturationAdjustmentOrange>
  <crs:SaturationAdjustmentPurple>0</crs:SaturationAdjustmentPurple>
  <crs:SaturationAdjustmentRed>0</crs:SaturationAdjustmentRed>
  <crs:SaturationAdjustmentYellow>0</crs:SaturationAdjustmentYellow>
  <crs:ShadowTint>0</crs:ShadowTint>
  <crs:Shadows>5</crs:Shadows>
  <crs:SharpenDetail>25</crs:SharpenDetail>
  <crs:SharpenEdgeMasking>0</crs:SharpenEdgeMasking>
  <crs:SharpenRadius>+1.0</crs:SharpenRadius>
  <crs:Sharpness>25</crs:Sharpness>
  <crs:SplitToningBalance>0</crs:SplitToningBalance>
  <crs:SplitToningHighlightHue>0</crs:SplitToningHighlightHue>
  <crs:SplitToningHighlightSaturation>0</crs:SplitToningHighlightSaturation>
  <crs:SplitToningShadowHue>0</crs:SplitToningShadowHue>
  <crs:SplitToningShadowSaturation>0</crs:SplitToningShadowSaturation>
  <crs:Temperature>7500</crs:Temperature>
  <crs:Tint>+10</crs:Tint>
  <crs:ToneCurve>
   <rdf:Seq>
    <rdf:li>0, 0</rdf:li>
    <rdf:li>32, 22</rdf:li>
    <rdf:li>64, 56</rdf:li>
    <rdf:li>128, 128</rdf:li>
    <rdf:li>192, 196</rdf:li>
    <rdf:li>255, 255</rdf:li>
   </rdf:Seq>
  </crs:ToneCurve>
  <crs:ToneCurveName>Medium Contrast</crs:ToneCurveName>
  <crs:Version>5.7</crs:Version>
  <crs:Vibrance>0</crs:Vibrance>
  <crs:VignetteAmount>0</crs:VignetteAmount>
  <crs:WhiteBalance>Shade</crs:WhiteBalance>
 </rdf:Description>

 <rdf:Description rdf:about=''
  xmlns:crs='http://ns.adobe.com/camera-raw-settings/1.0/'
  xmlns:crss='http://ns.adobe.com/camera-raw-saved-settings/1.0/'>
  <crss:SavedSettings>
   <rdf:Bag>
    <rdf:li rdf:parseType='Resource'>
     <crss:Name>Import/Nikon D2X, Auto WB, Noise 35-35</crss:Name>
     <crss:Parameters rdf:parseType='Resource'>
      <crs:BlueHue>0</crs:BlueHue>
      <crs:BlueSaturation>0</crs:BlueSaturation>
      <crs:Brightness>+50</crs:Brightness>
      <crs:CameraProfile>Camera D2X Mode 2</crs:CameraProfile>
      <crs:ChromaticAberrationB>0</crs:ChromaticAberrationB>
      <crs:ChromaticAberrationR>0</crs:ChromaticAberrationR>
      <crs:Clarity>0</crs:Clarity>
      <crs:ColorNoiseReduction>35</crs:ColorNoiseReduction>
      <crs:Contrast>+25</crs:Contrast>
      <crs:ConvertToGrayscale>False</crs:ConvertToGrayscale>
      <crs:Defringe>0</crs:Defringe>
      <crs:Exposure>0.00</crs:Exposure>
      <crs:FillLight>0</crs:FillLight>
      <crs:GreenHue>0</crs:GreenHue>
      <crs:GreenSaturation>0</crs:GreenSaturation>
      <crs:HighlightRecovery>0</crs:HighlightRecovery>
      <crs:HueAdjustmentAqua>0</crs:HueAdjustmentAqua>
      <crs:HueAdjustmentBlue>0</crs:HueAdjustmentBlue>
      <crs:HueAdjustmentGreen>0</crs:HueAdjustmentGreen>
      <crs:HueAdjustmentMagenta>0</crs:HueAdjustmentMagenta>
      <crs:HueAdjustmentOrange>0</crs:HueAdjustmentOrange>
      <crs:HueAdjustmentPurple>0</crs:HueAdjustmentPurple>
      <crs:HueAdjustmentRed>0</crs:HueAdjustmentRed>
      <crs:HueAdjustmentYellow>0</crs:HueAdjustmentYellow>
      <crs:LuminanceAdjustmentAqua>0</crs:LuminanceAdjustmentAqua>
      <crs:LuminanceAdjustmentBlue>0</crs:LuminanceAdjustmentBlue>
      <crs:LuminanceAdjustmentGreen>0</crs:LuminanceAdjustmentGreen>
      <crs:LuminanceAdjustmentMagenta>0</crs:LuminanceAdjustmentMagenta>
      <crs:LuminanceAdjustmentOrange>0</crs:LuminanceAdjustmentOrange>
      <crs:LuminanceAdjustmentPurple>0</crs:LuminanceAdjustmentPurple>
      <crs:LuminanceAdjustmentRed>0</crs:LuminanceAdjustmentRed>
      <crs:LuminanceAdjustmentYellow>0</crs:LuminanceAdjustmentYellow>
      <crs:LuminanceSmoothing>35</crs:LuminanceSmoothing>
      <crs:ParametricDarks>0</crs:ParametricDarks>
      <crs:ParametricHighlightSplit>75</crs:ParametricHighlightSplit>
      <crs:ParametricHighlights>0</crs:ParametricHighlights>
      <crs:ParametricLights>0</crs:ParametricLights>
      <crs:ParametricMidtoneSplit>50</crs:ParametricMidtoneSplit>
      <crs:ParametricShadowSplit>25</crs:ParametricShadowSplit>
      <crs:ParametricShadows>0</crs:ParametricShadows>
      <crs:PostCropVignetteAmount>0</crs:PostCropVignetteAmount>
      <crs:RedHue>0</crs:RedHue>
      <crs:RedSaturation>0</crs:RedSaturation>
      <crs:Saturation>0</crs:Saturation>
      <crs:SaturationAdjustmentAqua>0</crs:SaturationAdjustmentAqua>
      <crs:SaturationAdjustmentBlue>0</crs:SaturationAdjustmentBlue>
      <crs:SaturationAdjustmentGreen>0</crs:SaturationAdjustmentGreen>
      <crs:SaturationAdjustmentMagenta>0</crs:SaturationAdjustmentMagenta>
      <crs:SaturationAdjustmentOrange>0</crs:SaturationAdjustmentOrange>
      <crs:SaturationAdjustmentPurple>0</crs:SaturationAdjustmentPurple>
      <crs:SaturationAdjustmentRed>0</crs:SaturationAdjustmentRed>
      <crs:SaturationAdjustmentYellow>0</crs:SaturationAdjustmentYellow>
      <crs:ShadowTint>0</crs:ShadowTint>
      <crs:Shadows>5</crs:Shadows>
      <crs:SharpenDetail>25</crs:SharpenDetail>
      <crs:SharpenEdgeMasking>0</crs:SharpenEdgeMasking>
      <crs:SharpenRadius>+1.0</crs:SharpenRadius>
      <crs:Sharpness>25</crs:Sharpness>
      <crs:SplitToningBalance>0</crs:SplitToningBalance>
      <crs:SplitToningHighlightHue>0</crs:SplitToningHighlightHue>
      <crs:SplitToningHighlightSaturation>0</crs:SplitToningHighlightSaturation>
      <crs:SplitToningShadowHue>0</crs:SplitToningShadowHue>
      <crs:SplitToningShadowSaturation>0</crs:SplitToningShadowSaturation>
      <crs:ToneCurve>
       <rdf:Seq>
        <rdf:li>0, 0</rdf:li>
        <rdf:li>32, 22</rdf:li>
        <rdf:li>64, 56</rdf:li>
        <rdf:li>128, 128</rdf:li>
        <rdf:li>192, 196</rdf:li>
        <rdf:li>255, 255</rdf:li>
       </rdf:Seq>
      </crs:ToneCurve>
      <crs:ToneCurveName>Medium Contrast</crs:ToneCurveName>
      <crs:Version>5.7</crs:Version>
      <crs:Vibrance>0</crs:Vibrance>
      <crs:VignetteAmount>0</crs:VignetteAmount>
      <crs:WhiteBalance>Auto</crs:WhiteBalance>
     </crss:Parameters>
     <crss:Type>Snapshot</crss:Type>
    </rdf:li>
   </rdf:Bag>
  </crss:SavedSettings>
 </rdf:Description>

 <rdf:Description rdf:about=''
  xmlns:dc='http://purl.org/dc/elements/1.1/'>
  <dc:creator>
   <rdf:Seq>
    <rdf:li>XYZ Moscow</rdf:li>
   </rdf:Seq>
  </dc:creator>
  <dc:rights>
   <rdf:Alt>
    <rdf:li xml:lang='x-default'>(c) XYZ Moscow</rdf:li>
   </rdf:Alt>
  </dc:rights>
  <dc:subject>
   <rdf:Bag>
    <rdf:li>2010</rdf:li>
    <rdf:li>Городское ориентирование</rdf:li>
    <rdf:li>ПоБеГи</rdf:li>
    <rdf:li>Сергиев Посад</rdf:li>
    <rdf:li>Тесты</rdf:li>
   </rdf:Bag>
  </dc:subject>
 </rdf:Description>

 <rdf:Description rdf:about=''
  xmlns:exif='http://ns.adobe.com/exif/1.0/'>
  <exif:ApertureValue>4526069/1000000</exif:ApertureValue>
  <exif:Contrast>0</exif:Contrast>
  <exif:CustomRendered>0</exif:CustomRendered>
  <exif:DateTimeDigitized>2010-12-11T14:31:08.40+03:00</exif:DateTimeDigitized>
  <exif:DateTimeOriginal>2010-12-11T14:31:08.40+03:00</exif:DateTimeOriginal>
  <exif:DigitalZoomRatio>1/1</exif:DigitalZoomRatio>
  <exif:ExifVersion>0221</exif:ExifVersion>
  <exif:ExposureBiasValue>-9/6</exif:ExposureBiasValue>
  <exif:ExposureMode>0</exif:ExposureMode>
  <exif:ExposureProgram>3</exif:ExposureProgram>
  <exif:ExposureTime>1/750</exif:ExposureTime>
  <exif:FNumber>48/10</exif:FNumber>
  <exif:FileSource>3</exif:FileSource>
  <exif:Flash rdf:parseType='Resource'>
   <exif:Fired>False</exif:Fired>
   <exif:Function>False</exif:Function>
   <exif:Mode>0</exif:Mode>
   <exif:RedEyeMode>False</exif:RedEyeMode>
   <exif:Return>0</exif:Return>
  </exif:Flash>
  <exif:FocalLength>160/10</exif:FocalLength>
  <exif:FocalLengthIn35mmFilm>24</exif:FocalLengthIn35mmFilm>
  <exif:GPSLatitude>56,18.635833N</exif:GPSLatitude>
  <exif:GPSLongitude>38,7.863333E</exif:GPSLongitude>
  <exif:GPSMapDatum>WGS-84</exif:GPSMapDatum>
  <exif:GPSVersionID>2.2.0.0</exif:GPSVersionID>
  <exif:GainControl>0</exif:GainControl>
  <exif:ISOSpeedRatings>
   <rdf:Seq>
    <rdf:li>100</rdf:li>
   </rdf:Seq>
  </exif:ISOSpeedRatings>
  <exif:LightSource>0</exif:LightSource>
  <exif:MaxApertureValue>40/10</exif:MaxApertureValue>
  <exif:MeteringMode>5</exif:MeteringMode>
  <exif:PixelXDimension>3872</exif:PixelXDimension>
  <exif:PixelYDimension>2592</exif:PixelYDimension>
  <exif:Saturation>0</exif:Saturation>
  <exif:SceneCaptureType>0</exif:SceneCaptureType>
  <exif:SceneType>1</exif:SceneType>
  <exif:SensingMethod>2</exif:SensingMethod>
  <exif:Sharpness>0</exif:Sharpness>
  <exif:ShutterSpeedValue>9550747/1000000</exif:ShutterSpeedValue>
  <exif:SubjectDistanceRange>0</exif:SubjectDistanceRange>
  <exif:UserComment>
   <rdf:Alt>
    <rdf:li xml:lang='x-default'>(C) XYZ Moscow, www.xyz.su</rdf:li>
   </rdf:Alt>
  </exif:UserComment>
  <exif:WhiteBalance>0</exif:WhiteBalance>
 </rdf:Description>

 <rdf:Description rdf:about=''
  xmlns:lr='http://ns.adobe.com/lightroom/1.0/'>
  <lr:hierarchicalSubject>
   <rdf:Bag>
    <rdf:li>2010</rdf:li>
    <rdf:li>Городское ориентирование</rdf:li>
    <rdf:li>ПоБеГи</rdf:li>
    <rdf:li>Сергиев Посад</rdf:li>
    <rdf:li>Тесты</rdf:li>
   </rdf:Bag>
  </lr:hierarchicalSubject>
 </rdf:Description>

 <rdf:Description rdf:about=''
  xmlns:tiff='http://ns.adobe.com/tiff/1.0/'>
  <tiff:ImageLength>2592</tiff:ImageLength>
  <tiff:ImageWidth>3872</tiff:ImageWidth>
  <tiff:Make>NIKON CORPORATION</tiff:Make>
  <tiff:Model>NIKON D80</tiff:Model>
  <tiff:Orientation>8</tiff:Orientation>
 </rdf:Description>

 <rdf:Description rdf:about=''
  xmlns:xap='http://ns.adobe.com/xap/1.0/'>
  <xap:CreateDate>2010-12-11T14:31:08.40+03:00</xap:CreateDate>
  <xap:CreatorTool>Ver.1.11</xap:CreatorTool>
  <xap:MetadataDate>2011-01-23T04:37:10.718-03:00</xap:MetadataDate>
  <xap:ModifyDate>2010-12-11T14:31:08.40+03:00</xap:ModifyDate>
 </rdf:Description>

 <rdf:Description rdf:about=''
  xmlns:xapRights='http://ns.adobe.com/xap/1.0/rights/'>
  <xapRights:Marked>True</xapRights:Marked>
  <xapRights:WebStatement>http://xyz.su</xapRights:WebStatement>
 </rdf:Description>
</rdf:RDF>
</x:xmpmeta>
